Yaru++/actions/16/format-node-symmetric.svg

<svg viewBox="0 0 24 24" xmlns="http://www.w3.org/2000/svg"><path d="m4 10v3h3v-3zm13 0v3h3v-3zm-12 1h1v1h-1zm13 0h1v1h-1z" fill="#808080"/><path d="m10 9v2h-3v1h3v1h4v-1h3v-1h-3v-2zm1 1h2v2h-2z" fill="#1d99f3"/></svg>

<svg xmlns="http://www.w3.org/2000/svg" viewBox="0 0 24 24">
 <defs>
  <style id="current-color-scheme" type="text/css">
   .ColorScheme-Text { color:#808080; } .ColorScheme-Highlight { color:#1d99f3; }
  </style>
 </defs>
 <path style="fill:currentColor" class="ColorScheme-Text" d="M 4 10 L 4 13 L 7 13 L 7 10 L 4 10 z M 17 10 L 17 13 L 20 13 L 20 10 L 17 10 z M 5 11 L 6 11 L 6 12 L 5 12 L 5 11 z M 18 11 L 19 11 L 19 12 L 18 12 L 18 11 z"/>
 <path style="fill:currentColor" class="ColorScheme-Highlight" d="M 10 9 L 10 11 L 7 11 L 7 12 L 10 12 L 10 13 L 14 13 L 14 12 L 17 12 L 17 11 L 14 11 L 14 9 L 10 9 z M 11 10 L 13 10 L 13 12 L 11 12 L 11 10 z"/>
</svg>
